X:1
T:Title
%%score { ( 1 4 ) | ( 2 3 ) }
L:1/8
M:6/4
K:G
V:1 treble nm="Grand Piano"
V:4 treble 
V:2 bass 
V:3 bass 
V:1
 z6[Q:1/4=123] [DB]4 [DB]2 | [EA]4 E2 F2 G2 A2 | G6 B4 d2 | [EGd]6 [EGc]6 |[M:3/4] [DGB]6 | %5
 [B,DB]4 [B,DB]2 |[M:6/4] [B,^DB]4 [B,DA]2 [B,DG]4 [B,DF]2 | [B,EG]6 [A,EA]4 [A,EG]2 | %8
 [A,DF]6[K:bass] [G,^CE]6 |[M:3/4] [F,D]6 | [DB]4 [DB]2 |[M:6/4] [EA]4 E2 F2 G2 A2 | G6 B4 d2 | %13
 [EGd]6 [EGc]6 |[M:3/4] [DGB]6 | [D=FB]4 [DFB]2 |[M:6/4] [Ee]4 [=Fd]2 [Ec]4 [FB]2 | %17
 c4 B2 [A,EA]4 [A,EG]2 | [B,DG]6 [CFA]6 |[M:3/4] [B,G]6 |] %20
V:2
 z6 [G,,G,]4 [G,,G,]2 | z6 .A,6 | [G,B,D]6 [G,DG]4 [G,=FG]2 | C,6 E,6 |[M:3/4] G,6 | G,4 G,2 | %6
[M:6/4] F,4 F,2 B,,4 B,,2 | E,6 ^C,4 C,2 | D,6 A,,6 |[M:3/4] D,6 | [G,,G,]4 [G,,G,]2 | %11
[M:6/4] z6 .A,6 | [G,B,D]6 [G,DG]4 [G,=FG]2 | C,6 E,6 |[M:3/4] G,6 | G,4 G,2 | %16
[M:6/4] [C,C]4 [C,G,]2 [C,G,]4 [C,G,]2 | .G,6 z6 | D,6 D,6 |[M:3/4] G,,6 |] %20
V:3
 x12 | [C,G,]4 [C,C]2 [D,D]2- [D,B,D]2 [D,CD]2 | x12 | x12 |[M:3/4] x6 | x6 |[M:6/4] x12 | x12 | %8
 x12 |[M:3/4] x6 | x6 |[M:6/4] [C,G,]4 [C,C]2 [D,D]2- [D,B,D]2 [D,CD]2 | x12 | x12 |[M:3/4] x6 | %15
 x6 |[M:6/4] x12 | C,4- [C,^G,]2 C,4 ^C,2 | x12 |[M:3/4] x6 |] %20
V:4
 x12 | x12 | x12 | x12 |[M:3/4] x6 | x6 |[M:6/4] x12 | x12 | x6[K:bass] x6 |[M:3/4] x6 | x6 | %11
[M:6/4] x12 | x12 | x12 |[M:3/4] x6 | x6 |[M:6/4] x12 | E6 z6 | x12 |[M:3/4] x6 |] %20

